X:1
L:1/16
M:2/4
K:G
 D2 (3(AGF) .G2.A2 | B2DD D2D2 | D2 (3(AGF) .G2.A2 | B2DD D2D2 | D2 (3(AGF) .G2.A2 | c2DD D2D2 | 
 d2cB A2BA | G2GG G2 z2 |] !fermata!d2dd""^>"" g4 | B2BB""^>"" d4 | G2GG({A} GFGB) | (AGFE) D4 | 
 d2dd""^>"" g4 | B2BB""^>"" d4 | G2GG({A} GFGB) | A2dd d2D""^D.C.""D |][K:C] G4 ABcd | e2eg c'2 z2 | 
 G4 ABcd | e2eg c'2 z2 | A2f2 A2f2 | G2e2 F2d2 | E2c2 D2G2 | C2EG c2""^D.C."" z2 |]
